usr/share/icons/big-icons/symbolic/actions/mail-forwarded-replied.svg

<svg xmlns="http://www.w3.org/2000/svg" viewBox="0 0 16 16">
<defs id="defs3051">
<style id="current-color-scheme" type="text/css">
.ColorScheme-Text{color:#fcfcfc}
</style>
</defs>
<path d="m9 1-.625.781L11.773 4.5H3v1h8.773L8.375 8.219 9 9l5-4zM7 7l-5 4 5 4v-3h6v-2H7z" class="ColorScheme-Text" style="fill:currentColor;fill-opacity:1;stroke:none"/>
</svg>

<svg xmlns="http://www.w3.org/2000/svg" viewBox="0 0 16 16">
  <defs id="defs3051">
    <style type="text/css" id="current-color-scheme">
      .ColorScheme-Text {
        color:#eff0f1;
      }
      </style>
  </defs>
 <path style="fill:currentColor;fill-opacity:1;stroke:none" 
     d="M 9 1 L 8.375 1.78125 L 11.773438 4.5 L 3 4.5 L 3 5.5 L 11.773438 5.5 L 8.375 8.21875 L 9 9 L 14 5 L 9 1 z M 7 7 L 2 11 L 7 15 L 7 12 L 13 12 L 13 10 L 7 10 L 7 7 z "
     class="ColorScheme-Text"
     />
</svg>
